X: 3
T: Scollay's
Z: janglecrow
S: https://thesession.org/tunes/6463#setting27515
R: reel
M: 4/4
L: 1/8
K: Emin
E2EFG2A2|BcBA GFGA|B2E2E2G2|FGAFD2F2|
E2EFG2A2|BABd e2d2|B2Bc BAGF|G2E2E4:|
|:efgeB2B2|g2g2B4|c2cBA2G2|FGAFD2F2|
E2EFG2A2|BABde2d2|B2Bc BAGF|G2E2E4:|
